demoApp/www/icon/contact.svg

<svg xmlns="http://www.w3.org/2000/svg" viewBox="0 0 20 20" width="20" height="20"><font horiz-adv-x="2048"><font-face font-family="TeamsAssets-Light" units-per-em="2048" underline-position="-119" underline-thickness="119"/><glyph unicode="" horiz-adv-x="2048" d="M895 1600c0-17-6-32-19-45s-28-19-45-19H319c-17 0-32-6-45-19s-19-28-19-45V320c0-17 6-32 19-45s28-19 45-19h1152c17 0 32 6 45 19s19 28 19 45v512c0 17 6 32 19 45s28 19 45 19 32-6 45-19 19-28 19-45V320c0-25-5-49-15-72s-24-44-42-62c-19-19-39-33-62-43s-48-15-73-15H319c-25 0-49 5-72 15s-44 24-62 43c-19 18-33 39-43 62s-15 47-15 72v1152c0 25 5 50 15 73s24 43 43 62c18 18 39 32 62 42s47 15 72 15h512c17 0 32-6 45-19s19-28 19-45m948 244c24-24 43-51 56-82s20-64 20-98-6-67-19-98-32-59-56-83l-761-761c-3-3-15-9-35-16-39-14-93-30-160-48s-123-31-168-39c-21-5-36-7-45-7-17 0-31 7-44 20s-20 27-20 44c0 9 2 24 7 45 8 43 21 98 39 167 17 66 33 120 48 161 7 20 13 32 16 35l761 761c24 24 52 43 83 56s64 19 98 19 67-7 98-20 58-32 82-56m-270-89l-749-749-61-242 242 61 749 749c11 11 20 25 27 41s10 32 10 49c0 33-13 63-38 90-26 25-56 37-90 37-17 0-33-3-49-9-16-7-30-16-41-27z"/></font><text transform="translate(-1 21)" font-size="22" font-family="TeamsAssets-Light" fill="#6264a7"></text></svg>

<?xml version="1.0" encoding="utf-8"?>
<!-- Generator: Adobe Illustrator 21.0.0, SVG Export Plug-In . SVG Version: 6.00 Build 0)  -->
<svg version="1.1" id="Layer_1" xmlns="http://www.w3.org/2000/svg" xmlns:xlink="http://www.w3.org/1999/xlink" x="0px" y="0px"
	 viewBox="0 0 20 20" style="enable-background:new 0 0 20 20;" xml:space="preserve">
<style type="text/css">
	.st0{fill:#6264A7;}
	.st1{font-family:'TeamsAssets-Light';}
	.st2{font-size:22px;}
</style>
<font horiz-adv-x="2048">
<!-- Copyright (c) 2017 by Microsoft. All rights reserved. -->
<!-- Copyright: Copyright 2018 Adobe System Incorporated. All rights reserved. -->
<font-face font-family="TeamsAssets-Light" units-per-em="2048" underline-position="-119" underline-thickness="119"/>
<missing-glyph horiz-adv-x="600"/>
<glyph unicode="&#xE328;" horiz-adv-x="2048" d="M895,1600C895,1583 889,1568 876,1555C863,1542 848,1536 831,1536l-512,0C302,1536 287,1530 274,1517C261,1504 255,1489 255,1472l0,-1152C255,303 261,288 274,275C287,262 302,256 319,256l1152,0C1488,256 1503,262 1516,275C1529,288 1535,303 1535,320l0,512C1535,849 1541,864 1554,877C1567,890 1582,896 1599,896C1616,896 1631,890 1644,877C1657,864 1663,849 1663,832l0,-512C1663,295 1658,271 1648,248C1638,225 1624,204 1606,186C1587,167 1567,153 1544,143C1521,133 1496,128 1471,128l-1152,0C294,128 270,133 247,143C224,153 203,167 185,186C166,204 152,225 142,248C132,271 127,295 127,320l0,1152C127,1497 132,1522 142,1545C152,1568 166,1588 185,1607C203,1625 224,1639 247,1649C270,1659 294,1664 319,1664l512,0C848,1664 863,1658 876,1645C889,1632 895,1617 895,1600M1843,1844C1867,1820 1886,1793 1899,1762C1912,1731 1919,1698 1919,1664C1919,1630 1913,1597 1900,1566C1887,1535 1868,1507 1844,1483l-761,-761C1080,719 1068,713 1048,706C1009,692 955,676 888,658C821,640 765,627 720,619C699,614 684,612 675,612C658,612 644,619 631,632C618,645 611,659 611,676C611,685 613,700 618,721C626,764 639,819 657,888C674,954 690,1008 705,1049C712,1069 718,1081 721,1084l761,761C1506,1869 1534,1888 1565,1901C1596,1914 1629,1920 1663,1920C1697,1920 1730,1913 1761,1900C1792,1887 1819,1868 1843,1844M1573,1755l-749,-749l-61,-242l242,61l749,749C1765,1585 1774,1599 1781,1615C1788,1631 1791,1647 1791,1664C1791,1697 1778,1727 1753,1754C1727,1779 1697,1791 1663,1791C1646,1791 1630,1788 1614,1782C1598,1775 1584,1766 1573,1755z"/>
</font>

	<desc>Created with Sketch.</desc>
<g id="Priority-Msg-_x2F_-Img-Annotation">
	<g id="_x31_-0-Chat" transform="translate(-339.000000, -31.000000)">
		<g id="Header">
			<g id="Right-Icons" transform="translate(294.000000, 30.000000)">
				<g id="Icon_x2F_Brand-Line" transform="translate(44.000000, 0.000000)">
					<text transform="matrix(1 0 0 1 0 22)" class="st0 st1 st2"></text>
				</g>
			</g>
		</g>
	</g>
</g>
</svg>
